X:1
T:Title
%%score { ( 1 3 4 ) | ( 2 5 6 ) }
L:1/8
M:4/4
K:D
V:1 treble nm="Grand Piano"
V:3 treble 
V:4 treble 
V:2 bass 
V:5 bass 
V:6 bass 
V:1
 z4 z2[Q:1/4=100] [DF]>[EG] | [FA]2 [FA]>[GB] [FA]2 [DF]>[FA] | B2 B>B [Bd]2 [GB]>[GB] | %3
 [FA]2 [FA]>[GB] [FA]2 [EG]>[DF] |[M:3/4] [CE]6 |[M:1/4] [CF]>[DG] | %6
[M:4/4] [FA]2 [FA]>[GB] [FA]2 [DF]>[FA] | B2 B>B [Bd]2 B>B | A2 d>d [Ec]2 [GB]>[Gc] | %9
[M:3/4] [Fd]6 |[M:1/4] [DF]>[EG] |[M:4/4] [FA]6 [FA]2 | z A3- A2 z2 | [Gd]6 z2 | [FA]6 z2 | %15
 [FA]6 [FA]2 | z A3- A2 z2 | %17
[M:19/16] [Ec]/-[Ec]/-[Ec]/-[Ec]/-[Ec]-<[Ec][CGB]/-[CGB]/-[CGB]/-[CGB]/-[CGB]/-[CGB]-<[CGB][CGA] | %18
[M:4/4] [FA]2 [FA]>[GB] [FA]2 [DF]>[FA] | B2 B>B [Bd]2 B>B | A2 d>d [Ec]2 [GB]>[Gc] | %21
[M:7/4] [Fd]6 z2 z2 z4 |] %22
V:2
 z4 z2 [D,A,]>[D,A,] | [D,D]2 [D,D]>[D,D] [D,D]2 [D,A,]>[D,D] | %2
 [G,DG]2 [G,DG]>[G,DG] [G,D]2 [G,D]>[K:bass][G,D] | [D,D]2 [D,D]>[D,D] [D,D]2 [C,A,]>[D,A,] | %4
[M:3/4] [A,,A,]6 |[M:1/4] [D,A,]>[D,A,] |[M:4/4] [D,D]2 [D,D]>[D,D] [D,D]2 [D,A,]>[D,D] | %7
 [G,DG]2 [G,DG]>[G,DG] [G,D]2 [G,DG]>[G,DG] | %8
 [A,DF]2 [A,F]>[A,F][K:bass] [A,,A,]2 [A,,A,]>[A,,A,] |[M:3/4] [D,A,]6 |[M:1/4] [D,A,]>[D,A,] | %11
[M:4/4] [D,D]2 D,D, D,D, .D,>F | z F3- F2 z2 | [G,B,]2 G,G, G,2[K:treble] G>G | %14
 D,2 D,>D, D,2 D,>D, | D,2 D,D, D,D, .D,>F | z F3- F2 z2 | %17
[M:19/16] A,/-A,/-A,/-A,/-A,-<A,A,,/-A,,/-A,,/-A,,/-A,,/-A,,-<A,,A,, | %18
[M:4/4] [D,D]2 [D,D]>[D,D] [D,D]2 [D,A,]>[D,D] | [G,DG]2 [G,DG]>[G,DG] [G,D]2 [G,DG]>[G,DG] | %20
 [A,DF]2 [A,F]>[A,F][K:bass] [A,,A,]2 [A,,A,]>[A,,A,] |[M:7/4] [D,A,]6 z2 z2 z4 |] %22
V:3
 x8 | x8 | x8 | x8 |[M:3/4] x6 |[M:1/4] x2 |[M:4/4] x8 | x8 | x8 |[M:3/4] x6 |[M:1/4] x2 | %11
[M:4/4] z2 DD DD .D>A | .[GB]2 DD DD [Fd]2 | z2 B,B, B,2 B>B | D2 D>D D2 [A,DF]>[A,EG] | %15
 D2 DD DD .D>A | .[GB]2 DD DD [Fd]2 |[M:19/16] x19/2 |[M:4/4] x8 | x8 | x8 |[M:7/4] x14 |] %22
V:4
 x8 | x8 | x8 | x8 |[M:3/4] x6 |[M:1/4] x2 |[M:4/4] x8 | x8 | x8 |[M:3/4] x6 |[M:1/4] x2 | %11
[M:4/4] z4 z2 z D | x8 | x8 | x8 | z4 z2 z D | x8 |[M:19/16] x19/2 |[M:4/4] x8 | x8 | x8 | %21
[M:7/4] x14 |] %22
V:5
 x8 | x8 | x15/2[K:bass] x/ | x8 |[M:3/4] x6 |[M:1/4] x2 |[M:4/4] x8 | x8 | x4[K:bass] x4 | %9
[M:3/4] x6 |[M:1/4] x2 |[M:4/4] z4 z2 z D, | [D,D]2 z2 z4 | z4 z2[K:treble] [G,D]2 | x8 | %15
 z4 z2 z D, | [D,D]2 z2 z4 |[M:19/16] x19/2 |[M:4/4] x8 | x8 | x4[K:bass] x4 |[M:7/4] x14 |] %22
V:6
 x8 | x8 | x15/2[K:bass] x/ | x8 |[M:3/4] x6 |[M:1/4] x2 |[M:4/4] x8 | x8 | x4[K:bass] x4 | %9
[M:3/4] x6 |[M:1/4] x2 |[M:4/4] x8 | z2 D,D, D,D, [D,A,]2 | x6[K:treble] x2 | x8 | x8 | %16
 z2 D,D, D,D, [D,A,]2 |[M:19/16] x19/2 |[M:4/4] x8 | x8 | x4[K:bass] x4 |[M:7/4] x14 |] %22

